static/assets/images/partners/footer/logo-ars.svg

<svg width="144" height="83" viewBox="0 0 144 83" fill="none" xmlns="http://www.w3.org/2000/svg">
<g clip-path="url(#clip0_671_9827)">
<path d="M25.155 7.38559C32.4831 7.38559 37.7956 10.4585 37.7956 18.6095V21.922C12.7695 26.3647 2.05078 32.4012 0.441406 43.745H9.27476C11.5456 37.0731 20.9831 32.4429 37.7956 29.4897V43.745H46.306V18.495C46.306 5.03141 35.4362 0.0678711 25.03 0.0678711C13.4623 0.0678711 5.89455 5.96891 1.99351 13.0575L9.43621 16.9533C11.0977 12.8179 15.7018 7.38559 25.155 7.38559Z" fill="#143F94"/>
<path d="M20.8529 53.8698H22.0039L21.4414 50.2864H21.4153L20.8529 53.8698ZM20.3893 56.9635H19.0039L20.5456 48.625H22.3216L23.8529 56.9635H22.4726L22.2175 55.1198H20.6445L20.3893 56.9635Z" fill="#143F94"/>
<path d="M26.0221 54.4948C26.5065 54.4948 26.9023 54.125 26.9023 52.9792C26.9023 51.8385 26.5065 51.4687 26.0221 51.4687C25.543 51.4687 25.1472 51.8385 25.1472 52.9792C25.1472 54.125 25.543 54.4948 26.0221 54.4948ZM25.6576 56.6406C25.1732 56.8489 24.8451 57.1302 24.8451 57.4635C24.8451 57.9635 25.2565 58.3021 26.1628 58.3021C27.0846 58.3021 27.418 57.9323 27.418 57.4531C27.418 56.8958 26.3763 56.8073 25.6576 56.6406ZM28.2461 51.6094C28.1472 51.5833 28.0846 51.5833 28.0065 51.5833C27.7825 51.5833 27.6367 51.677 27.4805 51.8125C27.5951 52.1875 27.6628 52.4895 27.6628 52.9687C27.6628 54.4739 26.9805 55.1197 26.0534 55.1197C25.8659 55.1197 25.6784 55.0781 25.4961 55.0781C25.3555 55.1095 25.0742 55.2292 25.0742 55.4688C25.0742 55.8906 25.7565 55.9115 26.5326 56.0781C27.3971 56.2552 28.1732 56.5417 28.1732 57.5208C28.1732 58.3021 27.418 58.9271 26.1419 58.9271C24.7773 58.9271 24.0898 58.4271 24.0898 57.6354C24.0898 57.099 24.418 56.6667 24.9596 56.4375C24.6055 56.3178 24.3138 56.0261 24.3138 55.625C24.3138 55.1771 24.7096 54.8958 25.1003 54.8281C24.6263 54.4948 24.3867 53.7344 24.3867 53.1094C24.3867 51.6771 25.0742 50.8438 26.1263 50.8438C26.5274 50.8438 27.0325 51.0208 27.2305 51.4011C27.418 51.0781 27.7357 50.8438 28.2461 50.8438V51.6094Z" fill="#143F94"/>
<path d="M31.4362 53.4063C31.4207 52.1146 31.181 51.5417 30.431 51.5417C29.8372 51.5417 29.4414 51.9792 29.431 53.4063H31.4362ZM29.431 54.1042V54.4375C29.431 55.8958 29.7591 56.3906 30.5456 56.3906C31.181 56.3906 31.4518 55.7969 31.5456 55.25L32.3424 55.349C32.207 56.25 31.5299 57.0781 30.431 57.0781C29.1758 57.0781 28.5977 56.1302 28.5977 53.9635C28.5977 51.7917 29.1758 50.8438 30.431 50.8438C31.707 50.8438 32.2695 51.9792 32.2695 53.7083V54.1042L29.431 54.1042Z" fill="#143F94"/>
<path d="M33.0508 50.9635H33.8372V51.6198C34.2279 51.2135 34.806 50.8438 35.2018 50.8438C36.0299 50.8438 36.5143 51.3125 36.5143 52.4167V56.9635H35.6862V52.5312C35.6862 51.8385 35.4831 51.5417 35.0299 51.5417C34.6237 51.5417 34.2539 51.8125 33.8893 52.2812V56.9635H33.0508V50.9635Z" fill="#143F94"/>
<path d="M40.0768 52.7396C39.9935 51.8385 39.6289 51.5417 39.1185 51.5417C38.4206 51.5417 38.1185 51.9791 38.1185 53.9635C38.1185 55.9427 38.4206 56.3906 39.1185 56.3906C39.6549 56.3906 39.957 56.1094 40.0977 55.0729H40.9049C40.7695 56.25 40.207 57.0781 39.1185 57.0781C37.8685 57.0781 37.2852 56.1302 37.2852 53.9635C37.2852 51.7917 37.8685 50.8438 39.1185 50.8438C40.207 50.8438 40.7226 51.5625 40.8789 52.7396H40.0768Z" fill="#143F94"/>
<path d="M44.1602 53.4063C44.1341 52.1146 43.905 51.5417 43.155 51.5417C42.5508 51.5417 42.1602 51.9792 42.1445 53.4063H44.1602ZM42.1445 54.1042V54.4375C42.1445 55.8958 42.4883 56.3906 43.2643 56.3906C43.905 56.3906 44.1706 55.7969 44.2695 55.25L45.0612 55.349C44.9258 56.25 44.2539 57.0781 43.155 57.0781C41.8998 57.0781 41.3164 56.1302 41.3164 53.9635C41.3164 51.7917 41.8998 50.8438 43.155 50.8438C44.4206 50.8438 44.9883 51.9792 44.9883 53.7083V54.1042L42.1445 54.1042Z" fill="#143F94"/>
<path d="M49.1615 52.3646H49.6719C50.4531 52.3646 50.7344 52.0833 50.7344 51.0885C50.7344 50.0937 50.4532 49.8073 49.6719 49.8073H49.1615V52.3646ZM49.1615 56.9635H47.7344V48.625H49.7448C51.3437 48.625 52.1667 49.3073 52.1667 51.0885C52.1667 52.4323 51.6458 52.9687 51.1615 53.1927L52.375 56.9635H50.9219L49.9063 53.5156C49.724 53.5311 49.4167 53.547 49.1615 53.547V56.9635Z" fill="#143F94"/>
<path d="M54.5247 50.2863H53.9414L55.0768 48.6978H55.9726L54.5247 50.2863ZM55.5924 53.4061C55.5717 52.1144 55.3373 51.5415 54.5872 51.5415C53.9883 51.5415 53.6029 51.979 53.582 53.4061H55.5924ZM53.582 54.104V54.4373C53.582 55.8957 53.9206 56.3905 54.707 56.3905C55.3372 56.3905 55.6081 55.7967 55.7122 55.2498L56.4935 55.3488C56.3737 56.2498 55.681 57.078 54.5872 57.078C53.3268 57.078 52.7539 56.13 52.7539 53.9633C52.7539 51.7915 53.3268 50.8436 54.5872 50.8436C55.8581 50.8436 56.4258 51.979 56.4258 53.7082V54.104L53.582 54.104Z" fill="#143F94"/>
<path d="M58.8763 54.4948C59.3555 54.4948 59.7461 54.125 59.7461 52.9792C59.7461 51.8385 59.3555 51.4687 58.8763 51.4687C58.3815 51.4687 57.9961 51.8385 57.9961 52.9792C57.9961 54.125 58.3815 54.4948 58.8763 54.4948ZM58.5013 56.6406C58.0221 56.8489 57.694 57.1302 57.694 57.4635C57.694 57.9635 58.1159 58.3021 59.0169 58.3021C59.9336 58.3021 60.2565 57.9323 60.2565 57.4531C60.2565 56.8958 59.22 56.8073 58.5013 56.6406ZM61.0846 51.6094C61.0013 51.5833 60.9232 51.5833 60.8503 51.5833C60.6263 51.5833 60.4753 51.677 60.3242 51.8125C60.444 52.1875 60.5065 52.4895 60.5065 52.9687C60.5065 54.4739 59.819 55.1197 58.8971 55.1197C58.7149 55.1197 58.5273 55.0781 58.3346 55.0781C58.1992 55.1095 57.9284 55.2292 57.9284 55.4688C57.9284 55.8906 58.6107 55.9115 59.3763 56.0781C60.2461 56.2552 61.0221 56.5417 61.0221 57.5208C61.0221 58.3021 60.2565 58.9271 58.9909 58.9271C57.6263 58.9271 56.9336 58.4271 56.9336 57.6354C56.9336 57.099 57.2669 56.6667 57.8034 56.4375C57.4492 56.3178 57.1627 56.0261 57.1627 55.625C57.1627 55.1771 57.5586 54.8958 57.9492 54.8281C57.4805 54.4948 57.2357 53.7344 57.2357 53.1094C57.2357 51.6771 57.9284 50.8438 58.97 50.8438C59.3711 50.8438 59.8763 51.0208 60.069 51.4011C60.2565 51.0781 60.5846 50.8438 61.0846 50.8438V51.6094Z" fill="#143F94"/>
<path d="M61.9062 50.9637H62.7396V56.9637H61.9062V50.9637ZM61.9062 48.6304H62.7396V49.5991H61.9062V48.6304Z" fill="#143F94"/>
<path d="M65.375 56.3906C66.0886 56.3906 66.3854 55.9427 66.3854 53.9635C66.3854 51.9791 66.0886 51.5417 65.375 51.5417C64.6771 51.5417 64.3802 51.9791 64.3802 53.9635C64.3802 55.9427 64.6771 56.3906 65.375 56.3906ZM65.375 50.8438C66.6406 50.8438 67.2084 51.7917 67.2084 53.9635C67.2084 56.1302 66.6406 57.0781 65.375 57.0781C64.125 57.0781 63.5469 56.1302 63.5469 53.9635C63.5469 51.7917 64.125 50.8438 65.375 50.8438Z" fill="#143F94"/>
<path d="M68 50.9635H68.7865V51.6198C69.1771 51.2135 69.7552 50.8438 70.1459 50.8438C70.9792 50.8438 71.4688 51.3125 71.4688 52.4167V56.9635H70.6302V52.5312C70.6302 51.8385 70.4271 51.5417 69.974 51.5417C69.5729 51.5417 69.1979 51.8125 68.8333 52.2812V56.9635H68V50.9635Z" fill="#143F94"/>
<path d="M75.2188 53.7344C74.4584 53.9635 73.2136 54.5208 73.2136 55.4687C73.2136 56.026 73.4688 56.3906 74.0729 56.3906C74.5209 56.3906 74.9167 56.0781 75.2188 55.7604V53.7344ZM72.5469 52.599C72.7031 51.651 73.2656 50.8438 74.3281 50.8438C75.4375 50.8438 76.0417 51.4896 76.0417 52.5521V55.8958C76.0417 56.4375 76.099 56.8229 76.1927 56.9635H75.3333L75.224 56.4635C74.9011 56.7812 74.3281 57.0781 73.9479 57.0781C73.0104 57.0781 72.3906 56.4792 72.3906 55.5312C72.3906 54.0573 74.0208 53.3021 75.2188 53.0417V52.6094C75.2188 51.9531 74.8802 51.5417 74.349 51.5417C73.7135 51.5417 73.401 52.1719 73.3125 52.7187L72.5469 52.599Z" fill="#143F94"/>
<path d="M77.3633 48.6304H78.1914V56.9637H77.3633V48.6304Z" fill="#143F94"/>
<path d="M81.8398 53.4063C81.819 52.1146 81.5898 51.5417 80.8398 51.5417C80.2357 51.5417 79.8451 51.9792 79.8346 53.4063H81.8398ZM79.8346 54.1042V54.4375C79.8346 55.8958 80.1628 56.3906 80.9544 56.3906C81.5898 56.3906 81.8503 55.7969 81.9596 55.25L82.7461 55.349C82.6158 56.25 81.9336 57.0781 80.8398 57.0781C79.5742 57.0781 78.9961 56.1302 78.9961 53.9635C78.9961 51.7917 79.5742 50.8438 80.8398 50.8438C82.1055 50.8438 82.6679 51.9792 82.6679 53.7083V54.1042L79.8346 54.1042Z" fill="#143F94"/>
<path d="M88.1199 52.0677C87.8803 51.8281 87.5887 51.5417 87.2189 51.5417C86.5105 51.5417 86.1095 52.1146 86.1095 53.9635C86.1095 55.8125 86.547 56.3906 87.2397 56.3906C87.5001 56.3906 87.8647 56.1562 88.1199 55.8125V52.0677ZM88.271 56.3906H88.2396C87.9583 56.8125 87.5417 57.0781 87.0104 57.0781C86.0625 57.0781 85.2812 56.276 85.2812 53.9635C85.2812 51.651 86.0625 50.8437 87.0104 50.8437C87.4635 50.8437 87.8334 51.1146 88.1198 51.3958V48.625H88.9427V55.349C88.9427 56.1302 89.0002 56.6146 89.0939 56.9635H88.3022L88.271 56.3906Z" fill="#143F94"/>
<path d="M92.6302 53.4063C92.6038 52.1146 92.3751 51.5417 91.6198 51.5417C91.0261 51.5417 90.6354 51.9792 90.6198 53.4063H92.6302ZM90.6198 54.1042V54.4375C90.6198 55.8958 90.9584 56.3906 91.7396 56.3906C92.375 56.3906 92.6406 55.7969 92.7448 55.25L93.5313 55.349C93.4009 56.25 92.724 57.0781 91.6198 57.0781C90.3646 57.0781 89.7969 56.1302 89.7969 53.9635C89.7969 51.7917 90.3646 50.8438 91.6198 50.8438C92.8959 50.8438 93.4583 51.9792 93.4583 53.7083V54.1042L90.6198 54.1042Z" fill="#143F94"/>
<path d="M98.8138 50.6821C98.7617 49.9686 98.3763 49.7602 98.0586 49.7602C97.6002 49.7602 97.3398 50.0623 97.3398 50.578C97.3398 51.9998 100.251 52.6821 100.251 54.9426C100.251 56.3176 99.3294 57.078 97.9909 57.078C96.6575 57.078 95.8971 56.0207 95.8398 54.7707L97.1992 54.5727C97.2616 55.4217 97.6002 55.8332 98.0586 55.8332C98.5586 55.8332 98.8919 55.5675 98.8919 55.0727C98.8919 53.4165 95.9805 52.9842 95.9805 50.5884C95.9805 49.2655 96.7825 48.5103 98.1888 48.5103C99.3554 48.5103 100.059 49.354 100.178 50.5311L98.8138 50.6821Z" fill="#143F94"/>
<path d="M103.564 53.7344C102.798 53.9635 101.559 54.5208 101.559 55.4687C101.559 56.026 101.819 56.3906 102.418 56.3906C102.866 56.3906 103.262 56.0781 103.564 55.7604V53.7344ZM100.897 52.599C101.053 51.651 101.611 50.8438 102.668 50.8438C103.778 50.8438 104.392 51.4896 104.392 52.5521V55.8958C104.392 56.4375 104.45 56.8229 104.548 56.9635H103.673L103.574 56.4635C103.251 56.7812 102.668 57.0781 102.288 57.0781C101.355 57.0781 100.73 56.4792 100.73 55.5312C100.73 54.0573 102.361 53.3021 103.564 53.0417V52.6094C103.564 51.9531 103.225 51.5417 102.694 51.5417C102.059 51.5417 101.746 52.1719 101.652 52.7187L100.897 52.599Z" fill="#143F94"/>
<path d="M105.668 50.9635H106.449V51.6198C106.845 51.2135 107.428 50.8438 107.819 50.8438C108.647 50.8438 109.137 51.3125 109.137 52.4167V56.9635H108.303V52.5312C108.303 51.8385 108.1 51.5417 107.647 51.5417C107.241 51.5417 106.876 51.8125 106.501 52.2812V56.9635H105.668V50.9635Z" fill="#143F94"/>
<path d="M109.594 50.9635H110.401V48.9531H111.234V50.9635H112.344V51.651H111.234V55.8542C111.234 56.2031 111.417 56.4635 111.828 56.4635C111.995 56.4635 112.203 56.3906 112.344 56.3386V56.9636C112.109 57.0365 111.901 57.0781 111.552 57.0781C110.771 57.0781 110.401 56.7187 110.401 55.7812V51.651H109.594V50.9635Z" fill="#143F94"/>
<path d="M114.415 50.2863H113.842L114.973 48.6978H115.874L114.415 50.2863ZM115.493 53.4061C115.467 52.1144 115.233 51.5415 114.488 51.5415C113.884 51.5415 113.493 51.979 113.483 53.4061H115.493ZM113.483 54.104V54.4373C113.483 55.8957 113.816 56.3905 114.603 56.3905C115.233 56.3905 115.504 55.7967 115.608 55.2498L116.395 55.3488C116.264 56.2498 115.582 57.078 114.488 57.078C113.228 57.078 112.645 56.13 112.645 53.9633C112.645 51.7915 113.228 50.8436 114.488 50.8436C115.759 50.8436 116.322 51.979 116.322 53.7082V54.104L113.483 54.104Z" fill="#143F94"/>
<path d="M12.5521 48.4585C14.8802 48.4585 16.7656 50.3231 16.7656 52.6512C16.7656 54.9741 14.8802 56.8543 12.5521 56.8543C10.2292 56.8543 8.375 54.9741 8.375 52.6512C8.375 50.3231 10.2292 48.4585 12.5521 48.4585Z" fill="#E31E1E"/>
<path d="M8.45965 48.4585C10.7826 48.4585 12.668 50.3231 12.668 52.6512C12.668 54.9741 10.7826 56.8543 8.45965 56.8543C6.13152 56.8543 4.27734 54.9741 4.27734 52.6512C4.27734 50.3231 6.13152 48.4585 8.45965 48.4585Z" fill="white"/>
<path d="M4.19271 48.4585C6.51042 48.4585 8.40105 50.3231 8.40105 52.6512C8.40105 54.9741 6.51042 56.8543 4.19271 56.8543C1.86459 56.8543 0 54.9741 0 52.6512C0 50.3231 1.86459 48.4585 4.19271 48.4585Z" fill="#143F94"/>
<path d="M91.849 61.8906C99.3542 72.6146 106.099 75.375 116.516 75.375C126.625 75.375 134.286 68.7917 134.286 60.1979C134.286 37.0729 87.4063 50.0938 87.4063 21.7552C87.4063 6.73958 99.2031 0 112.688 0C126.01 0 134.438 5.20834 140.104 14.401L133.063 19.2969C127.698 11.9479 121.88 7.35416 112.38 7.35416C103.495 7.35416 96.599 11.6406 96.599 21.2865C96.599 40.75 143.479 29.2604 143.479 60.1979C143.479 74.4531 130.302 82.724 115.906 82.724C103.646 82.724 92.6198 77.8229 85.1094 66.6406L91.849 61.8906Z" fill="#94BF1E"/>
<path d="M63.1732 43.7448V28.6615C67.194 16.0156 72.7513 9.04167 83.3815 8.8073V0.296875C73.2201 0.296875 68.1367 5.03124 63.4024 13.4115H63.1732V1.23958H54.668V43.7448H63.1732Z" fill="#143F94"/>
</g>
<defs>
<clipPath id="clip0_671_9827">
<rect width="143.479" height="82.724" fill="white"/>
</clipPath>
</defs>
</svg>

<svg xmlns="http://www.w3.org/2000/svg" width="144" height="83" fill="none"><g clip-path="url(#a)"><path fill="#143F94" d="M25.155 7.386c7.328 0 12.64 3.073 12.64 11.224v3.312C12.77 26.365 2.052 32.402.442 43.745h8.834c2.27-6.672 11.708-11.302 28.52-14.255v14.255h8.511v-25.25C46.306 5.031 35.436.068 25.03.068c-11.568 0-19.135 5.9-23.036 12.99l7.442 3.895c1.662-4.135 6.266-9.567 15.719-9.567M20.853 53.87h1.15l-.562-3.584h-.026zm-.464 3.094h-1.385l1.542-8.339h1.776l1.53 8.339h-1.38l-.255-1.844h-1.572zM26.022 54.495c.485 0 .88-.37.88-1.516 0-1.14-.396-1.51-.88-1.51-.479 0-.875.37-.875 1.51 0 1.146.396 1.516.875 1.516m-.364 2.146c-.485.208-.813.49-.813.823 0 .5.412.838 1.318.838.922 0 1.255-.37 1.255-.849 0-.557-1.042-.646-1.76-.812m2.588-5.032c-.099-.026-.161-.026-.24-.026-.224 0-.37.094-.526.23.115.374.183.676.183 1.156 0 1.505-.683 2.15-1.61 2.15-.187 0-.375-.04-.557-.04-.14.03-.422.15-.422.39 0 .422.682.442 1.459.61.864.176 1.64.463 1.64 1.442 0 .781-.755 1.406-2.031 1.406-1.365 0-2.052-.5-2.052-1.292 0-.536.328-.968.87-1.197-.355-.12-.646-.412-.646-.813 0-.448.396-.73.786-.797-.474-.333-.713-1.094-.713-1.719 0-1.432.687-2.265 1.74-2.265.4 0 .906.177 1.104.557.187-.323.505-.557 1.015-.557zM31.436 53.406c-.015-1.291-.255-1.864-1.005-1.864-.594 0-.99.437-1 1.864zm-2.005.698v.334c0 1.458.328 1.953 1.115 1.953.635 0 .906-.594 1-1.141l.796.099c-.135.901-.812 1.73-1.911 1.73-1.255 0-1.833-.949-1.833-3.115 0-2.172.578-3.12 1.833-3.12 1.276 0 1.838 1.135 1.838 2.864v.396zM33.05 50.964h.787v.656c.39-.406.969-.776 1.365-.776.828 0 1.312.468 1.312 1.573v4.547h-.828V52.53c0-.692-.203-.99-.656-.99-.406 0-.776.272-1.14.74v4.683h-.84zM40.077 52.74c-.084-.901-.448-1.198-.959-1.198-.697 0-1 .437-1 2.422 0 1.979.303 2.427 1 2.427.537 0 .839-.282.98-1.318h.807c-.136 1.177-.698 2.005-1.787 2.005-1.25 0-1.833-.948-1.833-3.114 0-2.172.584-3.12 1.834-3.12 1.088 0 1.604.718 1.76 1.896zM44.16 53.406c-.026-1.291-.255-1.864-1.005-1.864-.604 0-.995.437-1.01 1.864zm-2.015.698v.334c0 1.458.343 1.953 1.12 1.953.64 0 .906-.594 1.005-1.141l.791.099c-.135.901-.807 1.73-1.906 1.73-1.255 0-1.839-.949-1.839-3.115 0-2.172.584-3.12 1.839-3.12 1.266 0 1.833 1.135 1.833 2.864v.396zM49.162 52.365h.51c.781 0 1.062-.282 1.062-1.276 0-.995-.28-1.282-1.062-1.282h-.51zm0 4.599h-1.428v-8.339h2.01c1.6 0 2.423.682 2.423 2.464 0 1.343-.521 1.88-1.006 2.104l1.214 3.77h-1.453l-1.016-3.447c-.182.015-.49.031-.745.031zM54.525 50.286h-.584l1.136-1.588h.896zm1.067 3.12c-.02-1.292-.255-1.864-1.005-1.864-.599 0-.984.437-1.005 1.864zm-2.01.698v.333c0 1.459.339 1.954 1.125 1.954.63 0 .901-.594 1.005-1.141l.781.099c-.12.9-.812 1.729-1.906 1.729-1.26 0-1.833-.948-1.833-3.115 0-2.172.573-3.12 1.833-3.12 1.271 0 1.839 1.136 1.839 2.865v.396zM58.876 54.495c.48 0 .87-.37.87-1.516 0-1.14-.39-1.51-.87-1.51-.494 0-.88.37-.88 1.51 0 1.146.386 1.516.88 1.516m-.375 2.146c-.479.208-.807.49-.807.823 0 .5.422.838 1.323.838.917 0 1.24-.37 1.24-.849 0-.557-1.037-.646-1.756-.812m2.584-5.032c-.084-.026-.162-.026-.235-.026-.224 0-.375.094-.526.23.12.374.183.676.183 1.156 0 1.505-.688 2.15-1.61 2.15-.182 0-.37-.04-.562-.04-.136.03-.407.15-.407.39 0 .422.683.442 1.448.61.87.176 1.646.463 1.646 1.442 0 .781-.765 1.406-2.031 1.406-1.365 0-2.057-.5-2.057-1.292 0-.536.333-.968.87-1.197-.355-.12-.641-.412-.641-.813 0-.448.396-.73.786-.797-.468-.333-.713-1.094-.713-1.719 0-1.432.692-2.265 1.734-2.265.401 0 .906.177 1.099.557.188-.323.516-.557 1.016-.557zM61.906 50.964h.834v6h-.834zm0-2.334h.834v.97h-.834zM65.375 56.39c.714 0 1.01-.447 1.01-2.426 0-1.985-.296-2.422-1.01-2.422-.698 0-.995.437-.995 2.422 0 1.979.297 2.427.995 2.427m0-5.546c1.266 0 1.833.948 1.833 3.12 0 2.166-.567 3.114-1.833 3.114-1.25 0-1.828-.948-1.828-3.114 0-2.172.578-3.12 1.828-3.12M68 50.964h.787v.656c.39-.406.968-.776 1.359-.776.833 0 1.323.468 1.323 1.573v4.547h-.839V52.53c0-.692-.203-.99-.656-.99-.401 0-.776.272-1.14.74v4.683H68zM75.219 53.734c-.76.23-2.005.787-2.005 1.735 0 .557.255.922.859.922.448 0 .844-.313 1.146-.63zM72.547 52.6c.156-.948.719-1.755 1.781-1.755 1.11 0 1.714.646 1.714 1.708v3.344c0 .541.057.927.15 1.068h-.859l-.109-.5c-.323.317-.896.614-1.276.614-.938 0-1.557-.599-1.557-1.547 0-1.474 1.63-2.229 2.828-2.49v-.432c0-.656-.339-1.067-.87-1.067-.636 0-.948.63-1.037 1.177zM77.363 48.63h.828v8.334h-.828zM81.84 53.406c-.021-1.291-.25-1.864-1-1.864-.604 0-.995.437-1.005 1.864zm-2.005.698v.334c0 1.458.328 1.953 1.12 1.953.635 0 .895-.594 1.005-1.141l.786.099c-.13.901-.812 1.73-1.906 1.73-1.266 0-1.844-.949-1.844-3.115 0-2.172.578-3.12 1.844-3.12s1.828 1.135 1.828 2.864v.396zM88.12 52.068c-.24-.24-.531-.526-.901-.526-.709 0-1.11.573-1.11 2.422s.438 2.427 1.13 2.427c.261 0 .626-.235.88-.578zm.151 4.323h-.031c-.282.422-.698.687-1.23.687-.948 0-1.729-.802-1.729-3.114 0-2.313.781-3.12 1.73-3.12.453 0 .822.27 1.109.552v-2.771h.823v6.724c0 .781.057 1.266.15 1.615h-.79zM92.63 53.406c-.026-1.291-.255-1.864-1.01-1.864-.594 0-.985.437-1 1.864zm-2.01.698v.334c0 1.458.338 1.953 1.12 1.953.635 0 .9-.594 1.005-1.141l.786.099c-.13.901-.807 1.73-1.911 1.73-1.255 0-1.823-.949-1.823-3.115 0-2.172.568-3.12 1.823-3.12 1.276 0 1.838 1.135 1.838 2.864v.396zM98.814 50.682c-.052-.713-.438-.922-.755-.922-.459 0-.72.302-.72.818 0 1.422 2.912 2.104 2.912 4.365 0 1.375-.922 2.135-2.26 2.135-1.334 0-2.094-1.057-2.151-2.307l1.36-.198c.062.849.4 1.26.859 1.26.5 0 .833-.265.833-.76 0-1.657-2.911-2.089-2.911-4.485 0-1.322.802-2.078 2.208-2.078 1.166 0 1.87.844 1.989 2.021zM103.564 53.734c-.766.23-2.005.787-2.005 1.735 0 .557.26.922.859.922.448 0 .844-.313 1.146-.63zm-2.667-1.135c.156-.948.714-1.755 1.771-1.755 1.11 0 1.724.646 1.724 1.708v3.344c0 .541.058.927.156 1.068h-.875l-.099-.5c-.323.317-.906.614-1.286.614-.933 0-1.558-.599-1.558-1.547 0-1.474 1.631-2.229 2.834-2.49v-.432c0-.656-.339-1.067-.87-1.067-.635 0-.948.63-1.042 1.177zM105.668 50.964h.781v.656c.396-.406.979-.776 1.37-.776.828 0 1.318.468 1.318 1.573v4.547h-.834V52.53c0-.692-.203-.99-.656-.99-.406 0-.771.272-1.146.74v4.683h-.833zM109.594 50.964h.807v-2.01h.833v2.01h1.11v.687h-1.11v4.203c0 .35.183.61.594.61.167 0 .375-.073.516-.125v.625a2.4 2.4 0 0 1-.792.114c-.781 0-1.151-.36-1.151-1.297v-4.13h-.807zM114.415 50.286h-.573l1.131-1.588h.901zm1.078 3.12c-.026-1.292-.26-1.864-1.005-1.864-.604 0-.995.437-1.005 1.864zm-2.01.698v.333c0 1.459.333 1.954 1.12 1.954.63 0 .901-.594 1.005-1.141l.787.099c-.131.9-.813 1.729-1.907 1.729-1.26 0-1.843-.948-1.843-3.115 0-2.172.583-3.12 1.843-3.12 1.271 0 1.834 1.136 1.834 2.865v.396z"/><path fill="#E31E1E" d="M12.552 48.459a4.194 4.194 0 0 1 4.214 4.192 4.207 4.207 0 0 1-4.214 4.203c-2.323 0-4.177-1.88-4.177-4.203a4.167 4.167 0 0 1 4.177-4.193"/><path fill="#fff" d="M8.46 48.459a4.193 4.193 0 0 1 4.208 4.192 4.206 4.206 0 0 1-4.208 4.203 4.18 4.18 0 0 1-4.183-4.203 4.17 4.17 0 0 1 4.183-4.193"/><path fill="#143F94" d="M4.193 48.459A4.197 4.197 0 0 1 8.4 52.65a4.21 4.21 0 0 1-4.208 4.203A4.19 4.19 0 0 1 0 52.651a4.177 4.177 0 0 1 4.193-4.193"/><path fill="#94BF1E" d="M91.849 61.89c7.505 10.725 14.25 13.485 24.667 13.485 10.109 0 17.77-6.583 17.77-15.177 0-23.125-46.88-10.104-46.88-38.443C87.406 6.74 99.203 0 112.688 0c13.322 0 21.75 5.208 27.416 14.401l-7.041 4.896c-5.365-7.35-11.183-11.943-20.683-11.943-8.885 0-15.781 4.287-15.781 13.933 0 19.463 46.88 7.973 46.88 38.91 0 14.256-13.177 22.527-27.573 22.527-12.26 0-23.286-4.901-30.797-16.083z"/><path fill="#143F94" d="M63.173 43.745V28.662c4.021-12.646 9.578-19.62 20.209-19.855V.297c-10.162 0-15.245 4.734-19.98 13.115h-.229V1.24h-8.505v42.505z"/></g><defs><clipPath id="a"><path fill="#fff" d="M0 0h143.479v82.724H0z"/></clipPath></defs></svg>
